!!!OTL: 1988. Lob Gottes.
!!!ODT: 1665
!!!ARE: Europa, Mitteleuropa, Deutschland
!!!SCT: E1988
!!!TXL: @@DE
!!!YEM: Copyright 1995, estate of Helmut Schaffrath.
**kern	**text
*ICvox	*
*M3/4	*
*met(3)	*
*k[f#]	*
*G:	*
=1	=1
!LO:TX:a:t=Choralmäßig.	!
!LO:TX:a:t=Mel. 1665.	!
{4g	Lo-
4g	-be
4dd	den
=2	=2
4b/	Her-
4a	-ren,
4g}	den
=3	=3
{4f#	mäch-
4e	-ti-
4d	-gen
=4	=4
4e	Kö-
4f#	-nig
4g	der
=5	=5
2.a	Eh-
=6	=6
2g	-ren,
4r}	.
=7	=7
{4g	mei-
4g	-ne
4dd	ge-
=8	=8
4b/	-lie-
4a	-be-
4g}	-te
=9	=9
{4f#	See-
4e	-le,
4d	das
=10	=10
4e	iſt
4f#	mein
4g	Be-
=11	=11
2.a	-geh-
=12	=12
2g	-ren.
4r}	.
=13	=13
{4dd	Kom-
4dd	-met
4dd	ʒu
=14	=14
2.ee}	Hauf,
=15	=15
{4b	Pſalter
4cc	.
4dd	und
=16	=16
4dd	Har-
4cc	-fe
4b	wacht
=17	=17
2.a}	auf,
=18	=18
{4d	laſ-
4e	-ſet
4f#	den
=19	=19
4g	Lob-
4a	-ge-
4b/	-ſang
=20	=20
2.a	hö-
=21	=21
2g	-ren!
4r}	.
==	==
!!!AGN: geistlich, Dank -, Lob - Lied, Choral
!!!ONB: ESAC (Essen Associative Code) Database: ERK3
!!!AMT: simple triple
!!!AIN: vox
!!!EED: Helmut Schaffrath
!!!EEV: 1.0
!!!GTL: Geistliche Lieder. 2. Gottesglaube und Gottesverehrung in Liedern: Bitt-, Lob-, Dank- und Trostlieder, nebst einigen Lehrgesaengen. 
!!!URL-scan: https://rosdok.uni-rostock.de/mcrviewer/recordIdentifier/rosdok_ppn745177999/iview2/phys_0699.iview2?x=188.96815741118007&y=66.68004443356767&scale=0.7014306698522891&rotation=0&layout=singlePageLayout
!!!ENC: Anna Maria Matuszewska
!!!EEV: 2025/10/01
*-	*-
